;FLAVOR:UltiGCode
;TIME:547
;MATERIAL:737
;MATERIAL2:0
;NOZZLE_DIAMETER:0.4
;MINX:82.857
;MINY:88.548
;MINZ:0.27
;MAXX:141.105
;MAXY:120.066
;MAXZ:3.27
;Generated with Cura_SteamEngine 4.8.0
M82 ;absolute extrusion mode
G0 F3000 Y50 ;avoid prime blob
G92 E0
G92 E0
G10
;LAYER_COUNT:22
;LAYER:0
M107
G0 F4500 X97.269 Y91.594 Z0.27
;TYPE:SKIRT
G11
G1 F1800 X97.733 Y91.105 E0.0637
G1 X98.304 Y90.594 E0.13611
G1 X98.853 Y90.168 E0.20178
G1 X99.19 Y89.95 E0.23971
G1 X99.666 Y89.667 E0.29204
G1 X100.308 Y89.352 E0.35962
G1 X100.905 Y89.112 E0.42043
G1 X101.348 Y88.968 E0.46445
G1 X102.003 Y88.797 E0.52842
G1 X102.703 Y88.663 E0.59577
G1 X103.274 Y88.603 E0.65003
G1 X104.067 Y88.568 E0.72504
G1 X104.874 Y88.614 E0.80142
G1 X107.611 Y88.777 E1.06053
G1 X110.327 Y88.861 E1.31731
G1 X113.042 Y88.87 E1.57388
G1 X115.791 Y88.8 E1.83375
G1 X118.479 Y88.655 E2.08813
G1 X119.519 Y88.577 E2.18669
G1 X120.024 Y88.548 E2.23449
G1 X120.985 Y88.58 E2.32535
G1 X121.668 Y88.654 E2.39027
G1 X122.199 Y88.761 E2.44146
G1 X122.955 Y88.962 E2.51539
G1 X123.748 Y89.256 E2.59531
G1 X124.328 Y89.529 E2.65589
G1 X124.784 Y89.778 E2.70498
G1 X125.272 Y90.086 E2.75952
G1 X125.816 Y90.484 E2.82322
G1 X126.3 Y90.898 E2.8834
G1 X126.71 Y91.295 E2.93733
G1 X127.091 Y91.717 E2.99106
G1 X127.487 Y92.222 E3.05171
G1 X127.801 Y92.681 E3.10426
G1 X128.142 Y93.259 E3.16768
G1 X128.474 Y93.955 E3.24055
G1 X128.787 Y94.782 E3.32411
G1 X128.997 Y95.566 E3.40081
G1 X129.096 Y96.121 E3.45409
G1 X129.167 Y96.827 E3.52114
G1 X129.203 Y97.755 E3.6089
G1 X129.056 Y100.468 E3.86566
G1 X128.985 Y103.218 E4.12562
G1 X128.992 Y105.936 E4.38247
G1 X129.074 Y108.647 E4.63878
G1 X129.236 Y111.38 E4.8975
G1 X129.365 Y112.974 E5.04863
G1 X129.37 Y113.53 E5.10117
G1 X129.296 Y114.081 E5.15371
G1 X129.143 Y114.616 E5.20629
G1 X128.914 Y115.124 E5.25895
G1 X128.616 Y115.593 E5.31146
G1 X128.254 Y116.016 E5.36407
G1 X127.995 Y116.253 E5.39725
G1 X127.533 Y116.641 E5.45426
G1 X125.543 Y118.37 E5.70338
G1 X125.254 Y118.615 E5.73919
G1 X124.805 Y118.943 E5.79173
G1 X124.313 Y119.204 E5.84436
G1 X123.789 Y119.391 E5.89694
G1 X123.216 Y119.506 E5.95217
G1 X122.266 Y119.62 E6.04259
G1 X120.636 Y119.788 E6.19744
G1 X119.214 Y119.908 E6.3323
G1 X119.089 Y119.917 E6.34414
G1 X116.848 Y120.033 E6.5562
G1 X116.333 Y120.052 E6.6049
G1 X114.852 Y120.066 E6.74486
G1 X113.025 Y120.05 E6.91752
G1 X111.902 Y120.024 E7.02367
G1 X109.43 Y119.892 E7.25761
G1 X108.602 Y119.835 E7.33604
G1 X107.86 Y119.763 E7.40648
G1 X106.797 Y119.646 E7.50754
G1 X106.11 Y119.56 E7.57297
G1 X105.367 Y119.392 E7.64496
G1 X104.027 Y118.946 E7.77842
G1 X101.44 Y118.123 E8.03496
G1 X98.569 Y117.303 E8.31712
G1 X97.351 Y116.975 E8.43632
G1 X96.825 Y116.792 E8.48895
G1 X96.332 Y116.535 E8.54149
G1 X95.88 Y116.211 E8.59405
G1 X95.479 Y115.825 E8.64664
G1 X95.137 Y115.386 E8.69923
G1 X94.862 Y114.902 E8.75184
G1 X94.659 Y114.384 E8.80441
G1 X94.532 Y113.842 E8.85702
G1 X94.484 Y113.288 E8.90957
G1 X94.506 Y112.823 E8.95356
G1 X94.582 Y112.107 E9.0216
G1 X94.838 Y109.329 E9.28524
G1 X95.01 Y106.648 E9.53911
G1 X95.107 Y103.904 E9.79858
G1 X95.127 Y101.215 E10.0527
G1 X95.04 Y97.93 E10.36324
G1 X95.039 Y97.164 E10.43563
G1 X95.118 Y96.294 E10.51818
G1 X95.197 Y95.839 E10.56182
G1 X95.368 Y95.107 E10.63286
G1 X95.556 Y94.505 E10.69246
G1 X95.802 Y93.891 E10.75496
G1 X96.107 Y93.262 E10.82102
G1 X96.458 Y92.668 E10.88622
G1 X96.831 Y92.129 E10.94817
G1 X97.269 Y91.594 E11.01351
G0 F4500 X97.539 Y91.816
G1 F1800 X97.966 Y91.366 E11.07213
G1 X98.537 Y90.855 E11.14454
G1 X99.046 Y90.46 E11.20543
G1 X99.369 Y90.251 E11.24178
G1 X99.845 Y89.968 E11.29411
G1 X100.451 Y89.671 E11.35789
G1 X101.033 Y89.438 E11.41713
G1 X101.437 Y89.306 E11.4573
G1 X102.092 Y89.135 E11.52127
G1 X102.74 Y89.011 E11.58361
G1 X103.311 Y88.951 E11.63787
G1 X104.054 Y88.917 E11.70816
G1 X104.837 Y88.962 E11.78227
G1 X107.615 Y89.127 E12.04526
G1 X110.315 Y89.211 E12.30053
G1 X113.05 Y89.22 E12.55899
G1 X115.784 Y89.15 E12.81744
G1 X118.522 Y89.003 E13.07655
G1 X119.539 Y88.927 E13.17293
G1 X120.044 Y88.898 E13.22073
G1 X120.964 Y88.93 E13.30772
G1 X121.608 Y88.999 E13.36893
G1 X122.117 Y89.101 E13.41798
G1 X122.841 Y89.293 E13.48877
G1 X123.621 Y89.582 E13.56737
G1 X124.17 Y89.841 E13.62474
G1 X124.615 Y90.085 E13.6727
G1 X125.077 Y90.376 E13.72429
G1 X125.607 Y90.765 E13.78642
G1 X126.065 Y91.158 E13.84345
G1 X126.465 Y91.546 E13.89611
G1 X126.824 Y91.944 E13.94676
G1 X127.21 Y92.437 E14.00593
G1 X127.507 Y92.871 E14.05563
G1 X127.84 Y93.435 E14.11753
G1 X128.153 Y94.095 E14.18655
G1 X128.45 Y94.877 E14.2656
G1 X128.658 Y95.652 E14.34143
G1 X128.747 Y96.157 E14.38989
G1 X128.818 Y96.852 E14.45591
G1 X128.854 Y97.737 E14.53961
G1 X128.706 Y100.477 E14.79892
G1 X128.635 Y103.21 E15.05727
G1 X128.642 Y105.948 E15.31602
G1 X128.724 Y108.644 E15.57091
G1 X128.886 Y111.381 E15.83001
G1 X129.017 Y113.002 E15.98369
G1 X129.019 Y113.532 E16.03377
G1 X128.943 Y114.057 E16.0839
G1 X128.788 Y114.565 E16.13409
G1 X128.559 Y115.044 E16.18427
G1 X128.26 Y115.482 E16.23438
G1 X127.77 Y115.985 E16.30074
G1 X127.303 Y116.377 E16.35836
G1 X125.316 Y118.103 E16.60708
G1 X125.027 Y118.348 E16.64289
G1 X124.598 Y118.66 E16.69301
G1 X124.127 Y118.903 E16.7431
G1 X123.624 Y119.073 E16.79327
G1 X123.173 Y119.158 E16.83664
G1 X122.23 Y119.272 E16.9264
G1 X120.606 Y119.44 E17.08069
G1 X119.184 Y119.56 E17.21555
G1 X116.834 Y119.683 E17.43793
G1 X116.329 Y119.702 E17.48568
G1 X114.855 Y119.716 E17.62498
G1 X113.033 Y119.7 E17.79717
G1 X112.03 Y119.678 E17.89197
G1 X111.921 Y119.674 E17.90228
G1 X109.454 Y119.543 E18.13574
G1 X108.636 Y119.487 E18.21322
G1 X107.898 Y119.415 E18.2833
G1 X106.84 Y119.299 E18.38388
G1 X106.153 Y119.213 E18.4493
G1 X105.478 Y119.06 E18.51471
G1 X104.138 Y118.614 E18.64817
G1 X101.532 Y117.785 E18.9066
G1 X98.678 Y116.97 E19.18708
G1 X97.442 Y116.637 E19.30805
G1 X96.941 Y116.46 E19.35826
G1 X96.473 Y116.211 E19.40836
G1 X96.047 Y115.894 E19.45854
G1 X95.674 Y115.517 E19.50865
G1 X95.362 Y115.088 E19.55878
G1 X95.117 Y114.617 E19.60895
G1 X94.946 Y114.115 E19.65907
G1 X94.852 Y113.592 E19.70928
G1 X94.854 Y112.86 E19.77846
G1 X94.936 Y112.09 E19.85163
G1 X95.185 Y109.384 E20.10843
G1 X95.361 Y106.648 E20.36752
G1 X95.457 Y103.918 E20.62566
G1 X95.478 Y101.209 E20.88167
G1 X95.39 Y97.924 E21.19221
G1 X95.388 Y97.186 E21.26196
G1 X95.466 Y96.333 E21.3429
G1 X95.537 Y95.918 E21.38269
G1 X95.708 Y95.186 E21.45372
G1 X95.881 Y94.635 E21.5083
G1 X96.127 Y94.021 E21.57081
G1 X96.408 Y93.44 E21.6318
G1 X96.759 Y92.846 E21.697
G1 X97.101 Y92.351 E21.75385
G1 X97.539 Y91.816 E21.81919
G0 F4500 X97.81 Y92.038
G1 F1800 X98.2 Y91.627 E21.87274
G1 X98.771 Y91.116 E21.94515
G1 X99.239 Y90.751 E22.00123
G1 X99.547 Y90.552 E22.03589
G1 X100.023 Y90.269 E22.08822
G1 X100.593 Y89.991 E22.14815
G1 X101.162 Y89.764 E22.20604
G1 X101.525 Y89.645 E22.24214
G1 X102.27 Y89.452 E22.31487
G1 X102.776 Y89.359 E22.36348
G1 X103.347 Y89.299 E22.41774
G1 X104.04 Y89.267 E22.4833
G1 X104.831 Y89.312 E22.55817
G1 X107.585 Y89.476 E22.81888
G1 X110.303 Y89.561 E23.07586
G1 X113.058 Y89.57 E23.33621
G1 X115.81 Y89.5 E23.59636
G1 X118.525 Y89.354 E23.85329
G1 X119.559 Y89.276 E23.95129
G1 X120.064 Y89.247 E23.99909
G1 X120.942 Y89.279 E24.08211
G1 X121.547 Y89.344 E24.13961
G1 X122.432 Y89.538 E24.22523
G1 X122.989 Y89.715 E24.28046
G1 X123.494 Y89.908 E24.33155
G1 X124.011 Y90.153 E24.38562
G1 X124.56 Y90.457 E24.44492
G1 X125.009 Y90.756 E24.4959
G1 X125.637 Y91.242 E24.57094
G1 X126.221 Y91.796 E24.64701
G1 X126.557 Y92.171 E24.69459
G1 X126.934 Y92.651 E24.75227
G1 X127.292 Y93.19 E24.81341
G1 X127.704 Y93.941 E24.89436
G1 X128 Y94.645 E24.96653
G1 X128.204 Y95.289 E25.03037
G1 X128.399 Y96.193 E25.11776
G1 X128.468 Y96.878 E25.18282
G1 X128.504 Y97.718 E25.26228
G1 X128.356 Y100.449 E25.52073
G1 X128.285 Y103.202 E25.78098
G1 X128.292 Y105.923 E26.03811
G1 X128.377 Y108.71 E26.30161
G1 X128.535 Y111.386 E26.55493
G1 X128.668 Y113.03 E26.7108
G1 X128.668 Y113.534 E26.75842
G1 X128.589 Y114.031 E26.80598
G1 X128.433 Y114.51 E26.85359
G1 X128.202 Y114.957 E26.90113
G1 X127.904 Y115.363 E26.94873
G1 X127.545 Y115.717 E26.99637
G1 X127.074 Y116.113 E27.05452
G1 X125.09 Y117.836 E27.30284
G1 X124.801 Y118.081 E27.33865
G1 X124.392 Y118.375 E27.38625
G1 X123.942 Y118.601 E27.43383
G1 X123.462 Y118.753 E27.48141
G1 X123.131 Y118.811 E27.51317
G1 X122.194 Y118.924 E27.60236
G1 X120.577 Y119.091 E27.75598
G1 X119.155 Y119.211 E27.89083
G1 X119.053 Y119.218 E27.9005
G1 X116.82 Y119.333 E28.11179
G1 X116.326 Y119.352 E28.15851
G1 X114.858 Y119.366 E28.29724
G1 X113.04 Y119.35 E28.46905
G1 X111.939 Y119.325 E28.57312
G1 X109.477 Y119.194 E28.80611
G1 X108.762 Y119.146 E28.87383
G1 X107.936 Y119.067 E28.95224
G1 X106.884 Y118.951 E29.05226
G1 X106.197 Y118.865 E29.11769
G1 X105.588 Y118.728 E29.17668
G1 X104.248 Y118.282 E29.31014
G1 X101.634 Y117.451 E29.56934
G1 X98.76 Y116.63 E29.8518
G1 X97.533 Y116.299 E29.9719
G1 X97.059 Y116.13 E30.01945
G1 X96.617 Y115.888 E30.06707
G1 X96.219 Y115.579 E30.11469
G1 X95.875 Y115.211 E30.16229
G1 X95.594 Y114.793 E30.20989
G1 X95.382 Y114.336 E30.25749
G1 X95.245 Y113.852 E30.30503
G1 X95.186 Y113.352 E30.35261
G1 X95.202 Y112.897 E30.39563
G1 X95.279 Y112.171 E30.46462
G1 X95.539 Y109.355 E30.73187
G1 X95.71 Y106.683 E30.98489
G1 X95.807 Y103.934 E31.24483
G1 X95.828 Y101.201 E31.50311
G1 X95.739 Y97.918 E31.81346
G1 X95.737 Y97.208 E31.88056
G1 X95.814 Y96.371 E31.95999
G1 X95.878 Y95.998 E31.99575
G1 X96.049 Y95.266 E32.06679
G1 X96.206 Y94.765 E32.1164
G1 X96.452 Y94.151 E32.17891
G1 X96.71 Y93.618 E32.23487
G1 X97.115 Y92.934 E32.30999
G1 X97.372 Y92.573 E32.35187
G1 X97.81 Y92.038 E32.4172
G10
;MESH:Brilliant Wluff-Crift.stl
G0 F4500 X99.685 Y93.646
G0 X100.496 Y94.338
G0 X99.882 Y97.392
G0 X100.042 Y98.675
G0 X100.645 Y99.877
G0 X101.547 Y100.794
G0 X102.657 Y101.37
G0 X103.894 Y101.553
G0 X105.835 Y101.233
;TYPE:WALL-INNER
G11
G1 F1800 X105.714 Y101.039 E32.43881
G1 X105.075 Y100.022 E32.55231
G1 X103.91 Y98.253 E32.75248
G1 X103.683 Y97.854 E32.79586
G1 X103.635 Y97.77 E32.805
G1 X103.695 Y97.649 E32.81777
G1 X103.758 Y97.603 E32.82514
G1 X103.853 Y97.583 E32.83431
G1 X104.063 Y97.538 E32.85461
G1 X107.781 Y97.538 E33.20596
G1 X107.782 Y97.538 E33.20605
G1 X108.003 Y97.538 E33.22694
G1 X107.951 Y97.323 E33.23964
G1 X107.692 Y96.249 E33.34404
G1 X107.427 Y95.623 E33.40828
G1 X107.07 Y95.06 E33.47128
G1 X106.635 Y94.573 E33.53298
G1 X106.131 Y94.165 E33.59426
G1 X105.568 Y93.844 E33.6555
G1 X104.958 Y93.62 E33.71691
G1 X104.311 Y93.497 E33.77915
G1 X103.638 Y93.484 E33.84276
G1 X102.957 Y93.586 E33.90783
G1 X102.302 Y93.791 E33.97269
G1 X101.7 Y94.102 E34.03672
G1 X101.165 Y94.501 E34.09979
G1 X100.704 Y94.977 E34.16241
G1 X100.324 Y95.513 E34.2245
G1 X100.033 Y96.101 E34.2865
G1 X99.896 Y96.536 E34.3296
G1 X99.836 Y96.729 E34.3487
G1 X99.832 Y96.761 E34.35175
G1 X99.745 Y97.384 E34.41119
G1 X99.745 Y97.408 E34.41346
G1 X99.768 Y98.052 E34.47436
G1 X99.772 Y98.074 E34.47647
G1 X99.913 Y98.717 E34.53868
G1 X99.922 Y98.74 E34.54101
G1 X100.184 Y99.375 E34.60592
G1 X100.229 Y99.45 E34.61419
G1 X100.539 Y99.962 E34.67075
G1 X100.971 Y100.474 E34.73406
G1 X101.468 Y100.905 E34.79622
G1 X102.02 Y101.25 E34.85774
G1 X102.617 Y101.5 E34.9189
G1 X103.248 Y101.65 E34.98019
G1 X103.9 Y101.689 E35.04192
G1 X104.561 Y101.615 E35.10477
G1 X105.616 Y101.298 E35.20887
G1 X105.835 Y101.233 E35.22187
G0 F4500 X106.375 Y101.182
G1 F1800 X106.516 Y100.954 E35.2472
G1 X106.689 Y100.673 E35.27838
G1 X106.791 Y100.507 E35.2968
G1 X107.713 Y99.012 E35.46278
G1 X107.789 Y98.887 E35.47661
G1 X107.982 Y98.57 E35.51168
G1 X107.974 Y98.555 E35.51328
G1 X107.68 Y98.035 E35.56973
G1 X104.927 Y98.035 E35.82989
G1 X104.631 Y98.589 E35.88925
G1 X105.693 Y100.182 E36.07017
G1 X106.224 Y100.96 E36.15919
G1 X106.375 Y101.182 E36.17391
G0 F4500 X108.327 Y104.021
G1 F1800 X108.452 Y103.75 E36.20211
G1 X109.941 Y100.546 E36.53599
G1 X110.491 Y99.336 E36.66159
G1 X110.514 Y99.101 E36.68391
G1 X110.526 Y98.971 E36.69624
G1 X110.541 Y98.825 E36.71011
G1 X110.701 Y98.988 E36.71959
G1 X110.816 Y99.049 E36.72933
G1 X110.996 Y99.145 E36.7486
G1 X111.099 Y99.199 E36.75959
G1 X111.114 Y99.201 E36.76102
G1 X111.373 Y99.244 E36.78583
G1 X111.15 Y99.33 E36.78993
G1 X111.09 Y99.353
G1 X111.018 Y99.444 E36.8009
G1 X110.805 Y99.712 E36.83325
G1 X110.543 Y100.307 E36.89469
G1 X110.457 Y100.832 E36.94496
G1 X112.895 Y102.072 E37.20344
G1 X114.19 Y102.747 E37.34144
G1 X114.765 Y101.981 E37.43196
G1 X113.352 Y100.32 E37.63803
G1 X112.964 Y99.874 E37.6939
G1 X112.519 Y99.374 E37.75715
G1 X112.297 Y99.239 E37.7817
G1 X112.251 Y99.211 E37.78679
G1 X112.178 Y99.166 E37.7949
G1 X112.057 Y99.162 E37.80634
G1 X112.149 Y99.113 E37.80679
G1 X112.389 Y98.983 E37.82438
G1 X112.427 Y98.946 E37.82891
G1 X112.638 Y98.739 E37.85685
G1 X112.704 Y98.674 E37.8656
G1 X112.794 Y98.511 E37.8832
G1 X112.924 Y98.274 E37.90874
G1 X112.96 Y98.059 E37.92934
G1 X113.002 Y97.808 E37.95339
G1 X112.978 Y97.644 E37.96905
G1 X112.935 Y97.356 E37.99657
G1 X112.917 Y97.319 E38.00046
G1 X112.736 Y96.951 E38.03921
G1 X112.487 Y96.699 E38.07269
G1 X112.416 Y96.627 E38.08225
G1 X112.166 Y96.499 E38.10879
G1 X112.023 Y96.425 E38.124
G1 X111.798 Y96.391 E38.14551
G1 X111.569 Y96.355 E38.16742
G1 X111.42 Y96.373 E38.1816
G1 X111.262 Y96.393 E38.19665
G1 X111.416 Y96.342 E38.19755
G1 X111.568 Y96.338 E38.19867
G1 X111.807 Y96.33 E38.20161
G1 X112.032 Y96.385 E38.20496
G1 X112.202 Y96.427 E38.20849
G1 X112.449 Y96.568 E38.21424
G1 X112.556 Y96.63 E38.21785
G1 X112.802 Y96.887 E38.22688
G1 X112.827 Y96.914 E38.22909
G1 X113.012 Y97.271 E38.2399
G1 X113.025 Y97.338 E38.24267
G1 X113.083 Y97.628 E38.25067
G1 X113.07 Y97.812 E38.25571
G1 X113.051 Y98.074 E38.26168
G1 X113 Y98.291 E38.26691
G1 X112.93 Y98.585 E38.2775
G1 X112.936 Y98.61
G1 X112.96 Y98.699 E38.28503
G1 X113.067 Y99.086 E38.32298
G1 X113.5 Y99.617 E38.38772
G1 X114.464 Y100.739 E38.52751
G1 X116.267 Y102.825 E38.78807
G1 X116.629 Y103.223 E38.83891
G1 X117.275 Y103.962 E38.93167
G1 X117.469 Y104.184 E38.95953
G1 X117.568 Y103.907 E38.97534
G1 X117.569 Y103.906 E38.97548
G1 X117.752 Y103.403 E39.02606
G1 X118.365 Y101.712 E39.19603
G1 X118.241 Y101.625 E39.21035
G1 X117.739 Y101.272 E39.26834
G1 X117.291 Y100.901 E39.32331
G1 X117.211 Y100.822 E39.33393
G1 X116.888 Y100.501 E39.37697
G1 X116.776 Y100.364 E39.39369
G1 X116.553 Y100.094 E39.42678
G1 X116.403 Y99.864 E39.45273
G1 X116.277 Y99.671 E39.47451
G1 X116.102 Y99.319 E39.51166
G1 X116.055 Y99.224 E39.52168
G1 X115.89 Y98.754 E39.56875
G1 X115.877 Y98.693 E39.57464
G1 X115.785 Y98.269 E39.61564
G1 X115.768 Y98.076 E39.63395
G1 X115.739 Y97.749 E39.66497
G1 X115.746 Y97.448 E39.69343
G1 X115.753 Y97.19 E39.71782
G1 X115.803 Y96.817 E39.75338
G1 X115.828 Y96.63 E39.77121
G1 X115.942 Y96.185 E39.81462
G1 X115.948 Y96.159 E39.81714
G1 X115.994 Y95.984 E39.83424
G1 X116.235 Y95.409 E39.89316
G1 X116.557 Y94.868 E39.95265
G1 X116.944 Y94.387 E40.01099
G1 X117.385 Y93.97 E40.06835
G1 X117.89 Y93.609 E40.12701
G1 X118.439 Y93.32 E40.18564
G1 X119.016 Y93.11 E40.24367
G1 X119.644 Y92.976 E40.30435
G1 X120.286 Y92.932 E40.36516
G1 X120.924 Y92.981 E40.42563
G1 X121.529 Y93.115 E40.48419
G1 X122.134 Y93.339 E40.54515
G1 X122.666 Y93.625 E40.60223
G1 X123.169 Y93.987 E40.66079
G1 X123.622 Y94.418 E40.71988
G1 X124.004 Y94.895 E40.77763
G1 X124.33 Y95.439 E40.83756
G1 X124.573 Y96.014 E40.89655
G1 X124.736 Y96.627 E40.9565
G1 X124.816 Y97.535 E41.04263
G1 X124.713 Y98.41 E41.12589
G1 X124.448 Y99.225 E41.20688
G1 X124.032 Y99.986 E41.28884
G1 X123.487 Y100.661 E41.37082
G1 X122.835 Y101.226 E41.45235
G1 X122.095 Y101.662 E41.53352
G1 X121.283 Y101.955 E41.61509
G1 X120.428 Y102.082 E41.69678
G1 X119.448 Y102.023 E41.78955
G1 X118.955 Y102.036 E41.83616
G1 X118.554 Y102.341 E41.88377
G1 X118.141 Y103.367 E41.98829
G1 X118.08 Y103.527 E42.00447
G1 X117.786 Y104.304 E42.08297
G1 X117.674 Y104.599 E42.11279
G1 X117.485 Y105.114 E42.16463
G1 X117.301 Y105.946 E42.24516
G1 X117.254 Y106.161 E42.26596
G1 X117.474 Y106.159 E42.27862
